!!!OTL: "Heimweg von der Lese" TRALL HEHM GONN
!!!ARE: Europa, Mitteleuropa, Deutschland, Rhein
!!!SCT: Z1367
!!!YEM: Copyright 1995, estate of Helmut Schaffrath.
**kern
*ICvox
*Ivox
*M6/8
*k[b-]
*F:
{8a
=1
4.f
4c
8a
=2
4.f
4c}
{8a
=3
4g
8g
4e
8e
=4
4f
8g
4a}
{8a
=5
4.f
4c
8a
=6
4.f
4c}
{8a
=7
4g
8g
4e
8e
=8
4f
4.r}
{8f
=9
4g
8g
4e
8c
=10
4f
8g
4a}
{8f
=11
8.g
16g
8g
4e
8c
=12
4f
8g
4a}
{8a
=13
4.f
4c
8a
=14
4.f
4c}
{8a
=15
4g
8g
4e
8c
=16
4f
4.r}
==
!!!AGN: Kinder - Lied
!!!ONB: ESAC (Essen Associative Code) Database: ZUCCAL
!!!AMT: compound duple
!!!AIN: vox
!!!EED: Helmut Schaffrath
!!!EEV: 1.0
*-
